X: 46
T: Vieni Sul Mar / Come to the Sea
O: Traditional, Naples Italy
M: 3/4
L: 1/8
K: D
"^A"[|]\
z2 D2 E2 ||"D"F2 B2 A2 | F2 D2 E2 | F2 D2 z2 |\
z2 D2 E2 | F2 G2 A2 |"G"B2 c2 B2 |"A"E6- |\
"A"E2 D2 E2 ||"D"F2 B2 A2 | F2 D2 E2 | F2 D2 z2 |
z2 D2 E2 | F2 B2 A2 |"A"E2 G2 F2 |"D"D6 "^B"|]|\
z2 F2 F2 |\
"Bm"F2 B2 c2 | d2 c2 B2 | "F#" B2 ^A4- |^A2 F2 F2 |\
"Bm"B2 B2 c2 | d2 e2 =f2 | "F#"^f6- | f2 F2 E2 ||
"D"D2 F2 A2 | d2 d2 c2 | "G" c2 B4- | B2 F2 G2 |\
"A7"A2 B2 A2 | G2 F2 E2 | "D" D6- | D2 B,C DE \
"^C"|: \
"D"F6 | "A"E2 D2 E2 | "D"D6 | DE FA Bc |
"G"d6 | B2 G2 B2 | "D"A6- | A2 z4 "^I"||\
"G"d2 B2 d2 | "F#m"c2 A2 c2 | "Em"B2 G2 B2 |"D"A6 |\
F6 | "A"E2 D2 E2 |[1"D"D6- | D4 z2 :|\
[2"D"D6 |]


